packages/core/src/svgs/tokens/mono/MIN.svg

<svg width="24" height="24" viewBox="0 0 24 24" fill="none" xmlns="http://www.w3.org/2000/svg">
<path d="M13.2679 4.33157C13.5815 3.3443 12.7343 2.74394 12.2741 2.56383C11.3402 2.36371 10.8732 3.07081 10.7197 3.43103C10.1994 5.08535 9.05212 8.54077 8.8119 9.3546C8.52506 10.3685 9.09881 11.0556 10.0059 11.1824C10.2808 11.2176 10.5599 11.1642 10.8022 11.0297C11.0446 10.8954 11.2377 10.6871 11.3534 10.4353L13.2679 4.33157Z" fill="white"/>
<path d="M13.3077 3.41759C12.9808 2.417 11.9403 2.43034 11.46 2.56374C11.1529 2.69548 10.901 2.92989 10.7477 3.22681C10.5944 3.52373 10.5491 3.86472 10.6195 4.1914C11.1798 5.87242 12.3606 9.42786 12.654 10.2418C13.0143 11.2557 14.0483 11.3691 14.8553 10.9288C15.5224 10.5686 15.4491 9.9015 15.3557 9.60795L13.3077 3.41759Z" fill="white"/>
<path d="M9.85856 11.1829C10.9259 11.1961 11.2594 10.3156 11.2862 9.81533C11.2532 9.47929 11.1038 9.16531 10.8639 8.92777C10.6239 8.69022 10.3084 8.54405 9.97203 8.51454C8.17092 8.50786 4.6221 8.5012 3.74824 8.51454C2.65424 8.53456 1.94716 9.3884 2.1206 10.2957C2.254 11.0428 2.88105 11.1762 3.1879 11.1829C4.95565 11.1896 8.78463 11.1695 9.85856 11.1829Z" fill="white"/>
<path d="M7.87128 15.0048C8.73846 15.6585 9.57894 15.0381 9.88588 14.6446C10.3661 13.7974 9.88588 13.0436 9.58563 12.7768C7.82522 11.4726 6.05745 10.1786 4.28245 8.89438C3.38191 8.254 2.50804 8.72095 2.11447 9.5614C1.79428 10.2553 2.2212 10.8156 2.47469 11.0089L7.87795 15.0115L7.87128 15.0048Z" fill="white"/>
<path d="M5.35626 19.6208C5.0027 20.6481 5.84321 21.2618 6.31016 21.4352C7.26407 21.6354 7.83109 20.9483 7.99117 20.5813C8.57821 18.8536 9.80555 15.1848 10.0725 14.3376C10.406 13.2837 9.69893 12.5899 8.77833 12.4698C8.02453 12.3764 7.61763 12.9568 7.51089 13.2569L5.35626 19.6208Z" fill="white"/>
<path d="M5.85653 18.9939C4.98267 19.6411 5.32955 20.6215 5.61638 21.0285C6.28345 21.7357 7.1373 21.4955 7.48418 21.2819C8.9384 20.188 12.0336 17.8667 12.7274 17.3196C13.5945 16.6392 13.4077 15.6653 12.714 15.0516C12.147 14.5379 11.4932 14.7848 11.2331 14.9716L5.85653 18.9939Z" fill="white"/>
<path d="M16.5293 21.1821C17.4033 21.8292 18.2371 21.2021 18.5439 20.8086C19.0108 19.9547 18.5306 19.2076 18.2304 18.9408C16.7562 17.8733 13.6277 15.6054 12.9005 15.0984C11.9933 14.4646 11.1194 14.9383 10.7391 15.7788C10.4189 16.4725 10.8526 17.0328 11.1061 17.2263C12.5537 18.2737 15.6555 20.535 16.5293 21.1821Z" fill="white"/>
<path d="M16.0292 20.5483C16.3762 21.5823 17.4102 21.549 17.8903 21.4022C18.1981 21.2523 18.4455 21.0023 18.5922 20.6932C18.7388 20.3841 18.776 20.0342 18.6975 19.7011C18.1106 17.9667 16.8498 14.3113 16.5429 13.484C16.1626 12.4435 15.182 12.3233 14.3815 12.7969C13.7278 13.1839 13.7613 13.8843 13.8546 14.1911L16.0292 20.5483Z" fill="white"/>
<path d="M21.2722 11.1359C22.1527 10.5021 21.8192 9.51477 21.539 9.10124C21.3052 8.84983 20.9922 8.6862 20.6523 8.63765C20.3123 8.58909 19.9662 8.65854 19.6712 8.8344C18.2038 9.90171 15.0817 12.1898 14.3813 12.7302C13.5008 13.3971 13.6809 14.3777 14.3681 14.9981C14.9284 15.5118 15.5888 15.2783 15.8489 15.0915C17.2898 14.0376 20.3917 11.7695 21.2722 11.1359Z" fill="white"/>
<path d="M20.5659 11.1827C21.6533 11.196 21.9801 10.3555 22.0001 9.8552C21.9629 9.51354 21.8106 9.19454 21.5681 8.95087C21.3256 8.7072 21.0075 8.55326 20.666 8.5144C18.8449 8.50106 14.9826 8.50106 14.0954 8.5144C12.9946 8.52774 12.561 9.39492 12.7345 10.3088C12.8746 11.0559 13.5617 11.176 13.8818 11.1827C15.6696 11.196 19.4852 11.1693 20.5726 11.1827H20.5659Z" fill="white"/>
</svg>

<svg xmlns="http://www.w3.org/2000/svg" width="24" height="24" fill="none" viewBox="0 0 24 24">
    <path fill="#fff" d="M13.268 4.332c.313-.988-.534-1.588-.994-1.768-.934-.2-1.4.507-1.554.867-.52 1.654-1.668 5.11-1.908 5.924-.287 1.013.287 1.7 1.194 1.827a1.3 1.3 0 0 0 1.347-.747z"/>
    <path fill="#fff" d="M13.308 3.418c-.327-1.001-1.368-.988-1.848-.854a1.44 1.44 0 0 0-.84 1.627c.56 1.681 1.74 5.237 2.034 6.05.36 1.015 1.394 1.128 2.201.688.667-.36.594-1.027.5-1.321zm-3.449 7.765c1.067.013 1.4-.867 1.427-1.368a1.45 1.45 0 0 0-1.314-1.3 637 637 0 0 0-6.224 0c-1.094.02-1.8.873-1.627 1.78.133.748.76.881 1.067.888 1.768.007 5.597-.014 6.67 0"/>
    <path fill="#fff" d="M7.871 15.005c.867.653 1.708.033 2.015-.36.48-.848 0-1.601-.3-1.868a582 582 0 0 0-5.304-3.883c-.9-.64-1.774-.173-2.168.667-.32.694.107 1.255.36 1.448l5.404 4.002z"/>
    <path fill="#fff" d="M5.356 19.62c-.353 1.028.487 1.642.954 1.815.954.2 1.521-.487 1.681-.854a566 566 0 0 0 2.082-6.243c.333-1.054-.374-1.748-1.295-1.868-.753-.094-1.16.487-1.267.787z"/>
    <path fill="#fff" d="M5.857 18.994c-.874.647-.527 1.628-.24 2.035.666.707 1.52.466 1.867.253 1.454-1.094 4.55-3.415 5.243-3.962.867-.68.68-1.655-.013-2.268-.567-.514-1.22-.267-1.48-.08z"/>
    <path fill="#fff" d="M16.53 21.182c.873.647 1.707.02 2.014-.373.467-.854-.013-1.601-.314-1.868-1.474-1.068-4.602-3.336-5.33-3.843-.907-.633-1.78-.16-2.16.68-.321.694.113 1.255.366 1.448 1.448 1.048 4.55 3.309 5.423 3.956"/>
    <path fill="#fff" d="M16.03 20.548c.346 1.034 1.38 1.001 1.86.854a1.51 1.51 0 0 0 .808-1.7c-.587-1.735-1.848-5.39-2.155-6.218-.38-1.04-1.361-1.16-2.161-.687-.654.387-.62 1.087-.527 1.394z"/>
    <path fill="#fff" d="M21.272 11.136c.88-.634.547-1.621.267-2.035a1.5 1.5 0 0 0-1.868-.267c-1.467 1.068-4.59 3.356-5.29 3.896-.88.667-.7 1.648-.013 2.268.56.514 1.22.28 1.48.094 1.442-1.054 4.544-3.322 5.424-3.956"/>
    <path fill="#fff" d="M20.566 11.183c1.087.013 1.414-.828 1.434-1.328a1.514 1.514 0 0 0-1.334-1.34 533 533 0 0 0-6.57 0c-1.101.013-1.535.88-1.361 1.794.14.747.827.867 1.147.874 1.788.013 5.603-.014 6.69 0z"/>
</svg>
